src/assets/space-id.svg

<svg fill="none" viewBox="0 0 16 16" xmlns="http://www.w3.org/2000/svg"><circle cx="8" cy="8" fill="#000" r="7.6875" stroke="#fff" stroke-width=".625"/><path clip-rule="evenodd" d="m3.33333 6.20529c0-1.58605 1.28575-2.87179 2.8718-2.87179h3.58974c1.58603 0 2.87183 1.28574 2.87183 2.87179v3.58974c0 1.58607-1.2858 2.87177-2.87183 2.87177h-3.58974c-1.58605 0-2.8718-1.2857-2.8718-2.87177zm2.8718-1.72308h3.58974c.95163 0 1.72303.77145 1.72303 1.72308v3.58974c0 .95167-.7714 1.72307-1.72303 1.72307h-3.58974c-.95163 0-1.72308-.7714-1.72308-1.72307v-3.58974c0-.95163.77145-1.72308 1.72308-1.72308zm3.30252 1.86697c-.3965 0-.71794.32144-.71794.71795v.28718c0 .39651.32144.71795.71794.71795h.28719c.39646 0 .71796-.32144.71796-.71795v-.28718c0-.39651-.3215-.71795-.71796-.71795zm-.71794 3.30217c0-.3965.32144-.71794.71794-.71794h.28719c.39646 0 .71796.32144.71796.71794v.28719c0 .39646-.3215.71796-.71796.71796h-.28719c-.3965 0-.71794-.3215-.71794-.71796z" fill="#1eefa4" fill-rule="evenodd"/></svg>

<svg viewBox="0 0 16 16" fill="none" xmlns="http://www.w3.org/2000/svg">
    <circle cx="8" cy="8" r="7.6875" fill="black" stroke="white" stroke-width="0.625"/>
    <path fill-rule="evenodd" clip-rule="evenodd" d="M3.33333 6.20529C3.33333 4.61924 4.61908 3.3335 6.20513 3.3335H9.79487C11.3809 3.3335 12.6667 4.61924 12.6667 6.20529V9.79503C12.6667 11.3811 11.3809 12.6668 9.79487 12.6668H6.20513C4.61908 12.6668 3.33333 11.3811 3.33333 9.79503V6.20529ZM6.20513 4.48221H9.79487C10.7465 4.48221 11.5179 5.25366 11.5179 6.20529V9.79503C11.5179 10.7467 10.7465 11.5181 9.79487 11.5181H6.20513C5.2535 11.5181 4.48205 10.7467 4.48205 9.79503V6.20529C4.48205 5.25366 5.2535 4.48221 6.20513 4.48221ZM9.50765 6.34918C9.11115 6.34918 8.78971 6.67062 8.78971 7.06713V7.35431C8.78971 7.75082 9.11115 8.07226 9.50765 8.07226H9.79484C10.1913 8.07226 10.5128 7.75082 10.5128 7.35431V7.06713C10.5128 6.67062 10.1913 6.34918 9.79484 6.34918H9.50765ZM8.78971 9.65135C8.78971 9.25485 9.11115 8.93341 9.50765 8.93341H9.79484C10.1913 8.93341 10.5128 9.25485 10.5128 9.65135V9.93854C10.5128 10.335 10.1913 10.6565 9.79484 10.6565H9.50765C9.11115 10.6565 8.78971 10.335 8.78971 9.93854V9.65135Z" fill="#1EEFA4"/>
</svg>
